X: 6900
T: Chattering Magpie, The
R: reel
M: 4/4
K: Gmajor
dc|BGAF DGGA|B2 ge fdcA|BGAF DG G2|FGAB c2 dc|
BGAF DGGA|B2 ge fdcA|BGAF DG G2|(3EFG AB c2 Bc||
dggf g3e|dgge fgaf|dggf g3a|bgag fdcA|
dggf g3e|dg3 fgaf|dggf g3a|bgag fdcA||

